COLOR/apps 16/16/evolution.svg

<svg enable-background="new" height="16" viewBox="0 0 16 16" width="16" xmlns="http://www.w3.org/2000/svg" xmlns:xlink="http://www.w3.org/1999/xlink"><filter id="a" color-interpolation-filters="sRGB"><feBlend in2="BackgroundImage" mode="multiply"/></filter><linearGradient id="b" gradientUnits="userSpaceOnUse" x1="7.82724082904" x2="9.10238566371" y1="40.11101973146" y2="34.24258417068"><stop offset="0" stop-color="#f6f5f4"/><stop offset="1" stop-color="#e9e7e4"/></linearGradient><g fill="none" transform="translate(0 -32)"><path d="m7.9755193 32.000137c-.35767-.001-.7165475.177154-1.0778431.538583l-5.3976762 5.280021v9.133126h12.893823v-9.133126l-5.347311-5.280153c-.3567284-.35673-.7133227-.537245-1.0709927-.538588z" fill="none" opacity=".6"/><path d="m7.9755193 32.000137c-.35767-.001-.7165475.177154-1.0778431.538583l-5.3976762 5.280021v9.133126h12.893823v-9.133126l-5.347311-5.280153c-.3567284-.35673-.7133227-.537245-1.0709927-.538588z" fill="#9a9996" stroke-width=".134311"/><path d="m2.5744852 33.5208h10.7448528v11.819339h-10.7448528z" fill="none" opacity=".6"/><path d="m7.9746094 0c-.35767-.001-.7148763.1776335-1.0761719.5390625l-5.3984375 5.2792969v.5l5.3984375-5.2792969c.3612956-.361429.7185019-.5400625 1.0761719-.5390625.35767.001343.7155372.1823325 1.0722656.5390625l5.347656 5.2792969v-.5l-5.347656-5.2792969c-.3567284-.35673-.7145956-.5377195-1.0722656-.5390625z" fill="#fffefa" opacity=".3" transform="translate(0 32)"/><g stroke-width=".134311"><path d="m2.5744852 33.5208h10.7448528v11.819339h-10.7448528z" fill="url(#b)"/><path d="m1.5 37.818741v9.133259l12.893823-.000133v-9.133137l-6.446912 5.909669z" fill="#d0d0cd"/><path d="m1.5 46.951867h12.893823l-5.347311-5.280156c-.7134579-.713457-1.4261097-.722723-2.1489701 0z" fill="#deddda"/><path d="m7.9755193 41.133259c-.35767-.001-.7165475.177158-1.0778431.538587l-5.3976762 5.280021h.2746654l5.1228765-5.011534c.7228604-.722726 1.4355122-.713457 2.1489701 0l5.075331 5.011534h.27198l-5.347311-5.280156c-.3567284-.356727-.7133227-.537242-1.0709927-.538585z" fill="#edeceb"/></g><path d="m15.778388 43.905004a4.0949993 4.0949993 0 0 1 -4.094999 4.094996 4.0949993 4.0949993 0 0 1 -4.0949999-4.094996 4.0949993 4.0949993 0 0 1 4.0949999-4.095006 4.0949993 4.0949993 0 0 1 4.094999 4.095006z" opacity=".6"/><path d="m2.5744852 33.5208h10.7448528v11.819339h-10.7448528z" stroke-width=".347826"/><path d="m1.5 14.451172v.5h12.894531v-.5z" fill="#000" opacity=".2" stroke-width=".134311" transform="translate(0 32)"/><path d="m15.778388 43.905004a4.0949993 4.0949993 0 0 1 -4.094999 4.094996 4.0949993 4.0949993 0 0 1 -4.0949999-4.094996 4.0949993 4.0949993 0 0 1 4.0949999-4.095006 4.0949993 4.0949993 0 0 1 4.094999 4.095006z" fill="#9141ac" stroke-width=".154669"/><circle cx="11.683389" cy="43.905006" fill="#f6f5f4" r="3.291343" stroke-width=".154669"/><path d="m11.683389 43.905004 1.714034-1.845966" fill="#949390" fill-rule="evenodd" stroke="#949390" stroke-linecap="round" stroke-width=".132087"/><path d="m11.683389 43.905004-.922906 2.373225" fill="none" stroke="#ed333b" stroke-linecap="round" stroke-width=".132087"/><path d="m91.494 268.07-9.513-9.52" fill="none" filter="url(#a)" stroke="#68676b" stroke-linecap="round" stroke-width="3.808" transform="matrix(.13879164 0 0 .13879164 -1.016585 6.72675)"/><circle cx="-7.215457" cy="44.855804" fill="#11100f" r=".395487" stroke-width=".154669" transform="matrix(.91326128 -.40737432 .40737432 .91326128 0 0)"/><circle cx="11.685246" cy="43.905006" fill="#131c1a" r=".132087" stroke-width=".154669"/><path d="m2.5742188 1.5214844v.5h10.7460932v-.5z" fill="#000" opacity=".2" stroke-width=".134311" transform="translate(0 32)"/><path d="m11.683594 7.8105469a4.0949993 4.0949993 0 0 0 -4.0957034 4.0937501 4.0949993 4.0949993 0 0 0 .0117188.283203 4.0949993 4.0949993 0 0 1 4.0839846-3.8769531 4.0949993 4.0949993 0 0 1 4.083984 3.8046871 4.0949993 4.0949993 0 0 0 .011719-.210937 4.0949993 4.0949993 0 0 0 -4.095703-4.0937501z" fill="#fff" opacity=".3" stroke-width=".154669" transform="translate(0 32)"/><path d="m11.683594 48a4.0949993 4.0949993 0 0 0 4.095704-4.09375 4.0949993 4.0949993 0 0 0 -.01172-.283203 4.0949993 4.0949993 0 0 1 -4.083985 3.876953 4.0949993 4.0949993 0 0 1 -4.0839839-3.804687 4.0949993 4.0949993 0 0 0 -.01172.210937 4.0949993 4.0949993 0 0 0 4.0957029 4.09375z" fill="#000" opacity=".2" stroke-width=".154669"/></g></svg>

<?xml version="1.0" encoding="UTF-8" standalone="no"?>
<svg
   xmlns:dc="http://purl.org/dc/elements/1.1/"
   xmlns:cc="http://creativecommons.org/ns#"
   xmlns:rdf="http://www.w3.org/1999/02/22-rdf-syntax-ns#"
   xmlns:svg="http://www.w3.org/2000/svg"
   xmlns="http://www.w3.org/2000/svg"
   xmlns:xlink="http://www.w3.org/1999/xlink"
   xmlns:sodipodi="http://sodipodi.sourceforge.net/DTD/sodipodi-0.dtd"
   xmlns:inkscape="http://www.inkscape.org/namespaces/inkscape"
   height="16"
   viewBox="0 0 16 16"
   width="16"
   version="1.1"
   id="svg74"
   sodipodi:docname="evolution.svg"
   inkscape:version="0.92.4 (5da689c313, 2019-01-14)"
   style="enable-background:new">
  <metadata
     id="metadata80">
    <rdf:RDF>
      <cc:Work
         rdf:about="">
        <dc:format>image/svg+xml</dc:format>
        <dc:type
           rdf:resource="http://purl.org/dc/dcmitype/StillImage" />
        <dc:title />
      </cc:Work>
    </rdf:RDF>
  </metadata>
  <defs
     id="defs78">
    <linearGradient
       gradientTransform="matrix(0.31914183,0,0,0.31914183,0.27556378,32.814522)"
       id="d-0"
       gradientUnits="userSpaceOnUse"
       x1="34.918625"
       x2="34.761932"
       xlink:href="#a"
       y1="22.817245"
       y2="45.972855" />
    <linearGradient
       id="linearGradient1190">
      <stop
         offset="0"
         stop-color="#fff"
         id="stop2-9" />
      <stop
         offset=".125"
         stop-color="#fff"
         stop-opacity=".098039"
         id="stop4-3" />
      <stop
         offset=".92500001"
         stop-color="#fff"
         stop-opacity=".098039"
         id="stop6-6" />
      <stop
         offset="1"
         stop-color="#fff"
         stop-opacity=".498039"
         id="stop8-0" />
    </linearGradient>
    <filter
       style="color-interpolation-filters:sRGB"
       id="c-6">
      <feBlend
         in2="BackgroundImage"
         mode="multiply"
         id="feBlend16-2" />
    </filter>
    <linearGradient
       gradientTransform="matrix(0.31914183,0,0,0.31914183,0.27556378,32.814522)"
       id="f-6"
       gradientUnits="userSpaceOnUse"
       x1="24.059015"
       x2="25.074343"
       xlink:href="#a"
       y1="1.774151"
       y2="42.46537" />
    <linearGradient
       gradientTransform="matrix(0.31914183,0,0,0.31914183,0.27556378,32.814522)"
       id="e-1"
       gradientUnits="userSpaceOnUse"
       x1="25.065369"
       x2="25.183651"
       y1="5.5256934"
       y2="38.116615">
      <stop
         offset="0"
         stop-color="#fff"
         id="stop20-8" />
      <stop
         offset=".125"
         stop-color="#fff"
         stop-opacity=".098039"
         id="stop22-7" />
      <stop
         offset=".92500001"
         stop-color="#fff"
         stop-opacity=".098039"
         id="stop24-9" />
      <stop
         offset="1"
         stop-color="#fff"
         stop-opacity="0"
         id="stop26-2" />
    </linearGradient>
    <linearGradient
       gradientTransform="matrix(0.34782603,0,0,0.34782603,-0.38573823,31.833195)"
       id="b-0"
       gradientUnits="userSpaceOnUse"
       x1="23.612318"
       x2="27.27836"
       y1="23.79875"
       y2="6.9269948">
      <stop
         offset="0"
         stop-color="#f6f5f4"
         id="stop11-2" />
      <stop
         offset="1"
         stop-color="#e9e7e4"
         id="stop13-3" />
    </linearGradient>
  </defs>
  <sodipodi:namedview
     pagecolor="#ffffff"
     bordercolor="#666666"
     borderopacity="1"
     objecttolerance="10"
     gridtolerance="10"
     guidetolerance="10"
     inkscape:pageopacity="0"
     inkscape:pageshadow="2"
     inkscape:window-width="1920"
     inkscape:window-height="1016"
     id="namedview76"
     showgrid="false"
     inkscape:zoom="55.933334"
     inkscape:cx="5.1325768"
     inkscape:cy="9.6091032"
     inkscape:window-x="0"
     inkscape:window-y="27"
     inkscape:window-maximized="1"
     inkscape:current-layer="g963" />
  <linearGradient
     id="a">
    <stop
       offset="0"
       stop-color="#fff"
       id="stop2" />
    <stop
       offset=".125"
       stop-color="#fff"
       stop-opacity=".098039"
       id="stop4" />
    <stop
       offset=".92500001"
       stop-color="#fff"
       stop-opacity=".098039"
       id="stop6" />
    <stop
       offset="1"
       stop-color="#fff"
       stop-opacity=".498039"
       id="stop8" />
  </linearGradient>
  <linearGradient
     id="b"
     gradientUnits="userSpaceOnUse"
     x1="23.612318"
     x2="27.27836"
     y1="23.79875"
     y2="6.9269948">
    <stop
       offset="0"
       stop-color="#f6f5f4"
       id="stop11" />
    <stop
       offset="1"
       stop-color="#e9e7e4"
       id="stop13" />
  </linearGradient>
  <filter
     id="c"
     style="color-interpolation-filters:sRGB">
    <feBlend
       in2="BackgroundImage"
       mode="multiply"
       id="feBlend16" />
  </filter>
  <linearGradient
     id="d"
     gradientUnits="userSpaceOnUse"
     x1="34.918625"
     x2="34.761932"
     xlink:href="#a"
     y1="22.817245"
     y2="45.972855" />
  <linearGradient
     id="e"
     gradientUnits="userSpaceOnUse"
     x1="25.065369"
     x2="25.183651"
     y1="5.5256934"
     y2="38.116615">
    <stop
       offset="0"
       stop-color="#fff"
       id="stop20" />
    <stop
       offset=".125"
       stop-color="#fff"
       stop-opacity=".098039"
       id="stop22" />
    <stop
       offset=".92500001"
       stop-color="#fff"
       stop-opacity=".098039"
       id="stop24" />
    <stop
       offset="1"
       stop-color="#fff"
       stop-opacity="0"
       id="stop26" />
  </linearGradient>
  <linearGradient
     id="f"
     gradientUnits="userSpaceOnUse"
     x1="24.059015"
     x2="25.074343"
     xlink:href="#a"
     y1="1.774151"
     y2="42.46537" />
  <g
     id="g72"
     style="fill:none"
     transform="translate(0,-32)">
    <g
       id="g963">
      <path
         style="opacity:0.6;fill:none;stroke:none;stroke-width:1.08987927;stroke-miterlimit:4;stroke-dasharray:none;stroke-opacity:1"
         d="m 7.9755193,32.000137 c -0.35767,-0.001 -0.7165475,0.177154 -1.0778431,0.538583 L 1.5,37.818741 v 9.133126 H 14.393823 V 37.818741 L 9.046512,32.538588 C 8.6897836,32.181858 8.3331893,32.001343 7.9755193,32 Z"
         id="path1222"
         inkscape:connector-curvature="0" />
      <path
         inkscape:connector-curvature="0"
         id="path32"
         d="m 7.9755193,32.000137 c -0.35767,-0.001 -0.7165475,0.177154 -1.0778431,0.538583 L 1.5,37.818741 v 9.133126 H 14.393823 V 37.818741 L 9.046512,32.538588 C 8.6897836,32.181858 8.3331893,32.001343 7.9755193,32 Z"
         style="fill:#9a9996;stroke-width:0.13431059" />
      <path
         inkscape:connector-curvature="0"
         id="path36"
         d="M 2.5744852,33.5208 H 13.319338 V 45.340139 H 2.5744852 Z"
         style="opacity:0.6;fill:none;stroke:none;stroke-width:1.08987927;stroke-miterlimit:4;stroke-dasharray:none" />
      <path
         style="fill:#fffefa;stroke-width:0.13431059;stroke:none;stroke-opacity:1;fill-opacity:1;opacity:0.3"
         d="M 7.9746094 0 C 7.6169394 -0.001 7.2597331 0.1776335 6.8984375 0.5390625 L 1.5 5.8183594 L 1.5 6.3183594 L 6.8984375 1.0390625 C 7.2597331 0.6776335 7.6169394 0.499 7.9746094 0.5 C 8.3322794 0.501343 8.6901466 0.6823325 9.046875 1.0390625 L 14.394531 6.3183594 L 14.394531 5.8183594 L 9.046875 0.5390625 C 8.6901466 0.1823325 8.3322794 0.001343 7.9746094 0 z "
         transform="translate(0,32)"
         id="path870" />
      <path
         inkscape:connector-curvature="0"
         id="path34"
         d="M 2.5744852,33.5208 H 13.319338 V 45.340139 H 2.5744852 Z"
         style="fill:url(#b-0);stroke-width:0.13431059" />
      <path
         inkscape:connector-curvature="0"
         id="path38"
         d="M 1.5,37.818741 V 46.952 l 12.893823,-1.33e-4 V 37.81873 l -6.446912,5.909669 z"
         style="fill:#d0d0cd;stroke-width:0.13431059" />
      <path
         inkscape:connector-curvature="0"
         id="path44"
         d="M 1.5,46.951867 H 14.393823 L 9.046512,41.671711 c -0.7134579,-0.713457 -1.4261097,-0.722723 -2.1489701,0 z"
         style="fill:#deddda;stroke-width:0.13431059" />
      <path
         inkscape:connector-curvature="0"
         id="path46"
         d="m 7.9755193,41.133259 c -0.35767,-0.001 -0.7165475,0.177158 -1.0778431,0.538587 L 1.5,46.951867 h 0.2746654 l 5.1228765,-5.011534 c 0.7228604,-0.722726 1.4355122,-0.713457 2.1489701,0 l 5.075331,5.011534 h 0.27198 L 9.046512,41.671711 C 8.6897836,41.314984 8.3331893,41.134469 7.9755193,41.133126 Z"
         style="fill:#edeceb;stroke-width:0.13431059" />
      <path
         inkscape:connector-curvature="0"
         style="opacity:0.6;stroke:none;stroke-width:1.08987927;stroke-miterlimit:4;stroke-dasharray:none"
         id="path64"
         d="M 15.778388,43.905004 A 4.0949993,4.0949993 0 0 1 11.683389,48 4.0949993,4.0949993 0 0 1 7.5883891,43.905004 a 4.0949993,4.0949993 0 0 1 4.0949999,-4.095006 4.0949993,4.0949993 0 0 1 4.094999,4.095006 z" />
      <path
         inkscape:connector-curvature="0"
         d="M 2.5744852,33.5208 H 13.319338 V 45.340139 H 2.5744852 Z"
         id="path68"
         style="stroke-width:0.34782606" />
      <path
         style="fill:#000000;stroke-width:0.13431059;fill-opacity:1;opacity:0.2"
         d="M 1.5 14.451172 L 1.5 14.951172 L 14.394531 14.951172 L 14.394531 14.451172 L 1.5 14.451172 z "
         transform="translate(0,32)"
         id="path866" />
      <path
         inkscape:connector-curvature="0"
         id="path50"
         d="M 15.778388,43.905004 A 4.0949993,4.0949993 0 0 1 11.683389,48 4.0949993,4.0949993 0 0 1 7.5883891,43.905004 a 4.0949993,4.0949993 0 0 1 4.0949999,-4.095006 4.0949993,4.0949993 0 0 1 4.094999,4.095006 z"
         style="fill:#9141ac;stroke-width:0.15466851" />
      <circle
         id="circle52"
         r="3.2913427"
         cy="43.905006"
         cx="11.683389"
         style="fill:#f6f5f4;stroke-width:0.15466851" />
      <path
         inkscape:connector-curvature="0"
         id="path54"
         d="m 11.683389,43.905004 1.714034,-1.845966"
         style="fill:#949390;fill-rule:evenodd;stroke:#949390;stroke-width:0.13208695;stroke-linecap:round" />
      <path
         inkscape:connector-curvature="0"
         id="path56"
         d="m 11.683389,43.905004 -0.922906,2.373225"
         style="fill:none;stroke:#ed333b;stroke-width:0.13208695;stroke-linecap:round" />
      <path
         inkscape:connector-curvature="0"
         id="path58"
         transform="matrix(0.13879164,0,0,0.13879164,-1.0165851,6.7267502)"
         d="m 91.494,268.07 -9.513,-9.52"
         style="fill:none;stroke:#68676b;stroke-width:3.80800009;stroke-linecap:round;filter:url(#c-6)" />
      <circle
         id="circle60"
         transform="rotate(-24.04)"
         r="0.39548692"
         cy="44.855804"
         cx="-7.215457"
         style="fill:#11100f;stroke-width:0.15466851" />
      <circle
         id="circle62"
         r="0.13208695"
         cy="43.905006"
         cx="11.685246"
         style="fill:#131c1a;stroke-width:0.15466851" />
      <path
         style="fill:#000000;stroke-width:0.13431059;fill-opacity:1;opacity:0.2"
         d="M 2.5742188 1.5214844 L 2.5742188 2.0214844 L 13.320312 2.0214844 L 13.320312 1.5214844 L 2.5742188 1.5214844 z "
         transform="translate(0,32)"
         id="path876" />
      <path
         style="fill:#ffffff;stroke-width:0.15466851;fill-opacity:1;opacity:0.3"
         d="M 11.683594 7.8105469 A 4.0949993 4.0949993 0 0 0 7.5878906 11.904297 A 4.0949993 4.0949993 0 0 0 7.5996094 12.1875 A 4.0949993 4.0949993 0 0 1 11.683594 8.3105469 A 4.0949993 4.0949993 0 0 1 15.767578 12.115234 A 4.0949993 4.0949993 0 0 0 15.779297 11.904297 A 4.0949993 4.0949993 0 0 0 11.683594 7.8105469 z "
         transform="translate(0,32)"
         id="path887" />
      <path
         id="path892"
         d="M 11.683594,48 A 4.0949993,4.0949993 0 0 0 15.779298,43.90625 4.0949993,4.0949993 0 0 0 15.767578,43.623047 4.0949993,4.0949993 0 0 1 11.683593,47.5 4.0949993,4.0949993 0 0 1 7.5996091,43.695313 4.0949993,4.0949993 0 0 0 7.5878891,43.90625 4.0949993,4.0949993 0 0 0 11.683592,48 Z"
         style="opacity:0.2;fill:#000000;fill-opacity:1;stroke-width:0.15466851"
         inkscape:connector-curvature="0" />
    </g>
  </g>
</svg>
